assets/logos/color_logo/vectrex.svg

<?xml version="1.0" encoding="UTF-8"?>
<svg width="496px" height="87px" viewBox="0 0 496 87" version="1.1" xmlns="http://www.w3.org/2000/svg" xmlns:xlink="http://www.w3.org/1999/xlink">
    <title>mainlogo</title>
    <g id="Page-1" stroke="none" stroke-width="1" fill="none" fill-rule="evenodd">
        <g id="mainlogo" transform="translate(12.000000, 12.000000)">
            <g id="Vectrex_vector_logo" stroke-linecap="round" stroke-linejoin="round">
                <g id="g1040-5" transform="translate(0.102002, 0.510824)" fill="#0000AA" fill-rule="nonzero" stroke="#0000AA" stroke-width="23.4983529">
                    <polygon id="path855-6-5" points="0.962190429 2.95288654 27.2280413 2.95288654 38.925081 18.3246784 50.6221248 2.95288654 76.8879757 2.95288654 38.925081 60.7512196"></polygon>
                    <polygon id="path872-4-6-7" points="116.640983 24.6688352 104.943952 24.6688352 104.943952 18.3246826 134.28567 18.3246826 130.915327 2.6625476 0.709999807 2.6625476 83.7791825 17.3018916 81.6543439 31.6077562 81.6543439 60.5529649 130.915331 60.5529649 134.28567 44.8908299 104.943952 44.8908299 104.943952 38.5466773 116.640983 38.5466773 116.640983 31.6077562"></polygon>
                    <g id="g1027-1" transform="translate(138.472439, 0.000000)">
                        <path d="M54.4873899,11.0636369 C46.0857174,1.2484209 32.4468913,-2.27222408 20.3442029,2.25011374 C8.24151451,6.77245155 0.253421348,18.3742935 0.34694899,31.2939609 C0.440480828,44.2136325 8.59569763,55.6986121 20.7625911,60.0452536 C32.9294845,64.3918992 46.5159093,60.674166 54.774607,50.7383489 L40.7961331,35.4301998 C37.4687118,39.3041509 32.5549124,41.9118261 28.0888993,40.618674 C23.6228862,39.3255176 20.606604,35.1631788 20.7682726,30.5165263 C20.9299497,25.8698738 24.2282163,21.9272361 28.7733056,20.9475982 C33.3183948,19.9679602 36.8264472,21.7812988 40.7103264,26.3693523 L54.4873899,11.0636369 Z" id="path898-4-5"></path>
                        <path d="M54.4873941,11.0636369 C46.0857174,1.2484209 32.4468955,-2.27222408 20.3442071,2.25011374 C8.2415187,6.77245155 0.253425544,18.3742935 0.346953186,31.2939609 C0.440485025,44.2136325 8.59570183,55.6986121 20.7625953,60.0452578 C32.9294887,64.3919034 46.5159093,60.6741702 54.774607,50.7383489 L40.7961331,35.4301998 C37.468716,39.3041509 32.5549166,41.9118261 28.0889035,40.618674 C23.6228904,39.3255176 20.6066082,35.1631788 20.7682768,30.5165263 C20.9299539,25.8698738 24.2282205,21.9272361 28.7733098,20.9475982 C33.318399,19.9679602 36.8264514,21.7812988 40.7103306,26.3693523 L54.4873941,11.0636369 Z" id="path898-1-5"></path>
                    </g>
                    <polygon id="path904-8-6-1" points="250.087196 2.72248519 254.374059 22.9319712 237.634886 22.9319712 434.303699 60.4930315 226.611531 60.4930315 213.138545 60.4930315 213.138545 22.9319712 196.399371 22.9319712 200.073825 2.72248519 226.611531 2.72248519"></polygon>
                    <g id="g1023-9" transform="translate(223.820129, 2.771135)">
                        <path d="M91.397293,13.9274914 C92.9567528,22.0091164 88.563572,30.0609405 81.2418879,33.8747862 L96.8478535,57.6415494 L71.2356555,57.6415494 L63.3310151,49.1890155 L63.3310151,22.7636737 L65.5320177,22.7636737 C66.5871231,22.7636737 67.5620908,22.2007833 68.0896498,21.2870288 C68.6171962,20.3732744 68.6171962,19.247485 68.0896498,18.3337348 C67.5620908,17.4199803 66.5871231,16.8570857 65.5320177,16.8570857 L57.3578008,16.8570857 L57.3578008,57.6415494 L34.0543664,57.6415494 L34.0543664,0.00670608102 L60.9583234,0.00670608102 L74.5335067,0.00670608102 C82.764212,0.00670608102 89.8378332,5.84586644 91.397293,13.9274914 Z" id="path944-0-2"></path>
                        <path d="M91.397293,13.9274914 C92.9567486,22.0091164 88.5635762,30.0609405 81.2418879,33.8747862 L96.8478493,57.6415536 L71.2356513,57.6415536 L63.3310109,49.1890155 L63.3310109,22.7636737 L65.5320177,22.7636737 C66.5871273,22.7636737 67.5620908,22.2007833 68.0896456,21.2870288 C68.6172004,20.3732744 68.6172004,19.247485 68.0896456,18.3337348 C67.5620908,17.4199803 66.5871273,16.8570857 65.5320177,16.8570857 L57.3578092,16.8570857 L57.3578092,57.6415536 L34.0543622,57.6415536 L0.152780147,0.00670608102 L60.9583234,0.00670608102 L74.5335067,0.00670608102 C82.7642162,0.00670608102 89.8378373,5.84586644 91.397293,13.9274914 Z" id="path944-7-0"></path>
                    </g>
                    <polygon id="path872-4-3-7-9" points="361.688496 24.6688352 349.99146 24.6688352 349.99146 18.3246826 379.333183 18.3246826 375.962839 2.6625476 326.701852 2.6625476 326.701852 31.6077562 326.701852 60.5529649 375.962843 60.5529649 379.333183 44.8908299 349.99146 44.8908299 349.99146 38.5466773 361.688496 38.5466773 361.688496 31.6077562"></polygon>
                    <polygon id="path965-5-7" points="410.430337 42.2382728 383.237732 57.5186938 195.450298 34.5551841 172.063419 31.6953296 370.94589 2.64765133 410.430295 2.64765133 419.057967 15.2749153 324.98962 2.64764713 454.87827 2.64764713 436.869929 31.6953296 454.878228 60.7429994 212.918558 60.7429994 419.057967 48.1157397"></polygon>
                </g>
                <g id="g1040" transform="translate(1.052002, 0.510824)" stroke="#FFFFFF">
                    <polygon id="path855-6" stroke-width="4.04926968" fill="#0000AA" fill-rule="nonzero" points="0.0121904288 2.95288654 26.2780413 2.95288654 37.975081 18.3246784 49.6721248 2.95288654 75.9379757 2.95288654 37.975081 60.7512196"></polygon>
                    <polygon id="path872-4-6" stroke-width="4.04926968" fill="#0000AA" fill-rule="nonzero" points="115.690983 24.6688352 103.993952 24.6688352 103.993952 18.3246826 133.33567 18.3246826 129.965327 2.6625476 80.7043439 2.6625476 80.7043439 31.6077562 80.7043439 60.5529649 129.965331 60.5529649 133.33567 44.8908299 103.993952 44.8908299 103.993952 38.5466773 115.690983 38.5466773 115.690983 31.6077562"></polygon>
                    <g id="g1027" transform="translate(137.522439, 0.000000)" stroke-width="4.04926968">
                        <path d="M54.4873899,11.0636369 C46.0857174,1.2484209 32.4468913,-2.27222408 20.3442029,2.25011374 C8.24151451,6.77245155 0.253421348,18.3742935 0.34694899,31.2939609 C0.440480828,44.2136325 8.59569763,55.6986121 20.7625911,60.0452536 C32.9294845,64.3918992 46.5159093,60.674166 54.774607,50.7383489 L40.7961331,35.4301998 C37.4687118,39.3041509 32.5549124,41.9118261 28.0888993,40.618674 C23.6228862,39.3255176 20.606604,35.1631788 20.7682726,30.5165263 C20.9299497,25.8698738 24.2282163,21.9272361 28.7733056,20.9475982 C33.3183948,19.9679602 36.8264472,21.7812988 40.7103264,26.3693523 L54.4873899,11.0636369 Z" id="path898-4" fill="#0000AA" fill-rule="nonzero"></path>
                        <path d="M54.4873941,11.0636369 C46.0857174,1.2484209 32.4468955,-2.27222408 20.3442071,2.25011374 C8.2415187,6.77245155 0.253425544,18.3742935 0.346953186,31.2939609 C0.440485025,44.2136325 8.59570183,55.6986121 20.7625953,60.0452578 C32.9294887,64.3919034 46.5159093,60.6741702 54.774607,50.7383489 L40.7961331,35.4301998 C37.468716,39.3041509 32.5549166,41.9118261 28.0889035,40.618674 C23.6228904,39.3255176 20.6066082,35.1631788 20.7682768,30.5165263 C20.9299539,25.8698738 24.2282205,21.9272361 28.7733098,20.9475982 C33.318399,19.9679602 36.8264514,21.7812988 40.7103306,26.3693523 L54.4873941,11.0636369 Z" id="path898-1"></path>
                    </g>
                    <polygon id="path904-8-6" stroke-width="4.04926968" fill="#0000AA" fill-rule="nonzero" points="249.137196 2.72248519 251.203603 22.9319712 236.684886 22.9319712 236.684886 60.4930315 225.661531 60.4930315 212.188545 60.4930315 212.188545 22.9319712 195.796316 22.9319712 199.123825 2.72248519 225.661531 2.72248519"></polygon>
                    <g id="g1023" transform="translate(256.439205, 2.771135)" stroke-width="4.04926968">
                        <path d="M57.8282169,13.9274914 C59.3876767,22.0091164 54.9944959,30.0609405 47.6728118,33.8747862 L63.2787774,57.6415494 L37.6665794,57.6415494 L29.7619389,49.1890155 L29.7619389,22.7636737 L31.9629416,22.7636737 C33.018047,22.7636737 33.9930147,22.2007833 34.5205737,21.2870288 C35.0481201,20.3732744 35.0481201,19.247485 34.5205737,18.3337348 C33.9930147,17.4199803 33.018047,16.8570857 31.9629416,16.8570857 L22.2536612,16.8570857 L22.2536612,57.6415494 L0.485290238,57.6415494 L0.485290238,0.00670608102 L27.3892473,0.00670608102 L40.9644306,0.00670608102 C49.1951359,0.00670608102 56.268757,5.84586644 57.8282169,13.9274914 Z" id="path944-0" fill="#0000AA" fill-rule="nonzero"></path>
                        <path d="M57.8282169,13.9274914 C59.3876725,22.0091164 54.9945001,30.0609405 47.6728118,33.8747862 L63.2787732,57.6415536 L37.6665752,57.6415536 L29.7619348,49.1890155 L29.7619348,22.7636737 L31.9629416,22.7636737 C33.0180512,22.7636737 33.9930147,22.2007833 34.5205695,21.2870288 C35.0481243,20.3732744 35.0481243,19.247485 34.5205695,18.3337348 C33.9930147,17.4199803 33.0180512,16.8570857 31.9629416,16.8570857 L22.2536612,16.8570857 L22.2536696,57.6415536 L0.485286042,57.6415536 L0.485286042,0.00670608102 L27.3892473,0.00670608102 L40.9644306,0.00670608102 C49.1951401,0.00670608102 56.2687612,5.84586644 57.8282169,13.9274914 Z" id="path944-7"></path>
                    </g>
                    <polygon id="path872-4-3-7" stroke-width="4.04926968" fill="#0000AA" fill-rule="nonzero" points="360.738496 24.6688352 349.04146 24.6688352 349.04146 18.3246826 378.383183 18.3246826 375.012839 2.6625476 325.751852 2.6625476 325.751852 31.6077562 325.751852 60.5529649 375.012843 60.5529649 378.383183 44.8908299 349.04146 44.8908299 349.04146 38.5466773 360.738496 38.5466773 360.738496 31.6077562"></polygon>
                    <polygon id="path965-5" stroke-width="4.01947943" fill="#0000AA" fill-rule="nonzero" points="409.480337 60.7430036 382.287732 60.7430036 400.296048 31.6953296 382.28769 2.64765133 409.480295 2.64765133 418.107967 15.2749153 426.735639 2.64764713 453.92827 2.64764713 435.919929 31.6953296 453.928228 60.7429994 426.735597 60.7429994 418.107967 48.1157397"></polygon>
                </g>
            </g>
            <path d="M473.035907,63.3791741 L473.035907,57.9500898 L471,57.9500898 L471,57 L476.293357,57 L476.293357,57.9500898 L473.985996,57.9500898 L473.985996,63.3791741 L473.035907,63.3791741 Z M476.836266,63.3791741 L476.836266,57 L478.464991,57 L480.093716,62.1576302 L481.722442,57 L483.21544,57 L483.21544,63.3791741 L482.26535,63.3791741 L482.26535,57.9500898 L480.636625,63.3791741 L479.686535,63.3791741 L477.922083,57.9500898 L477.922083,63.3791741 L476.836266,63.3791741 Z" id="Shape" fill="#FFFFFF" fill-rule="nonzero"></path>
        </g>
    </g>
</svg>

<?xml version="1.0" encoding="UTF-8" standalone="no"?>
<svg
   xmlns:dc="http://purl.org/dc/elements/1.1/"
   xmlns:cc="http://creativecommons.org/ns#"
   xmlns:rdf="http://www.w3.org/1999/02/22-rdf-syntax-ns#"
   xmlns:svg="http://www.w3.org/2000/svg"
   xmlns="http://www.w3.org/2000/svg"
   xmlns:sodipodi="http://sodipodi.sourceforge.net/DTD/sodipodi-0.dtd"
   xmlns:inkscape="http://www.inkscape.org/namespaces/inkscape"
   width="500"
   height="200"
   viewBox="0 0 500 200"
   version="1.1"
   id="svg87"
   sodipodi:docname="vectrex.svg"
   inkscape:version="0.92.5 (2060ec1f9f, 2020-04-08)">
  <metadata
     id="metadata93">
    <rdf:RDF>
      <cc:Work
         rdf:about="">
        <dc:format>image/svg+xml</dc:format>
        <dc:type
           rdf:resource="http://purl.org/dc/dcmitype/StillImage" />
        <dc:title>mainlogo</dc:title>
      </cc:Work>
    </rdf:RDF>
  </metadata>
  <defs
     id="defs91" />
  <sodipodi:namedview
     pagecolor="#ffffff"
     bordercolor="#666666"
     borderopacity="1"
     objecttolerance="10"
     gridtolerance="10"
     guidetolerance="10"
     inkscape:pageopacity="0"
     inkscape:pageshadow="2"
     inkscape:window-width="1366"
     inkscape:window-height="740"
     id="namedview89"
     showgrid="false"
     inkscape:pagecheckerboard="true"
     inkscape:zoom="1.1775454"
     inkscape:cx="248"
     inkscape:cy="43.5"
     inkscape:window-x="0"
     inkscape:window-y="0"
     inkscape:window-maximized="1"
     inkscape:current-layer="svg87" />
  <title
     id="title57">mainlogo</title>
  <g
     id="Page-1"
     style="fill:none;fill-rule:evenodd;stroke:none;stroke-width:1"
     transform="translate(-0.84922418,58.649652)">
    <g
       id="mainlogo"
       transform="translate(12,12)">
      <g
         id="Vectrex_vector_logo"
         style="stroke-linecap:round;stroke-linejoin:round">
        <g
           id="g1040-5"
           transform="translate(0.102002,0.510824)"
           style="fill:#0000aa;fill-rule:nonzero;stroke:#0000aa;stroke-width:23.49835205">
          <polygon
             id="path855-6-5"
             points="38.925081,60.75122 0.96219043,2.9528865 27.228041,2.9528865 38.925081,18.324678 50.622125,2.9528865 76.887976,2.9528865 " />
          <polygon
             id="path872-4-6-7"
             points="0.70999981,2.6625476 83.779183,17.301892 81.654344,31.607756 81.654344,60.552965 130.91533,60.552965 134.28567,44.89083 104.94395,44.89083 104.94395,38.546677 116.64098,38.546677 116.64098,31.607756 116.64098,24.668835 104.94395,24.668835 104.94395,18.324683 134.28567,18.324683 130.91533,2.6625476 " />
          <g
             id="g1027-1"
             transform="translate(138.47244)">
            <path
               d="M 54.48739,11.063637 C 46.085717,1.2484209 32.446891,-2.2722241 20.344203,2.2501137 8.2415145,6.7724516 0.25342135,18.374293 0.34694899,31.293961 0.44048083,44.213633 8.5956976,55.698612 20.762591,60.045254 32.929484,64.391899 46.515909,60.674166 54.774607,50.738349 L 40.796133,35.4302 c -3.327421,3.873951 -8.241221,6.481626 -12.707234,5.188474 -4.466013,-1.293156 -7.482295,-5.455495 -7.320626,-10.102148 0.161677,-4.646652 3.459943,-8.58929 8.005033,-9.568928 4.545089,-0.979638 8.053141,0.833701 11.93702,5.421754 z"
               id="path898-4-5"
               inkscape:connector-curvature="0" />
            <path
               d="M 54.487394,11.063637 C 46.085717,1.2484209 32.446895,-2.2722241 20.344207,2.2501137 8.2415187,6.7724516 0.25342554,18.374293 0.34695319,31.293961 0.44048502,44.213633 8.5957018,55.698612 20.762595,60.045258 32.929489,64.391903 46.515909,60.67417 54.774607,50.738349 L 40.796133,35.4302 c -3.327417,3.873951 -8.241216,6.481626 -12.70723,5.188474 -4.466013,-1.293156 -7.482295,-5.455495 -7.320626,-10.102148 0.161677,-4.646652 3.459943,-8.58929 8.005033,-9.568928 4.545089,-0.979638 8.053141,0.833701 11.937021,5.421754 z"
               id="path898-1-5"
               inkscape:connector-curvature="0" />
          </g>
          <polygon
             id="path904-8-6-1"
             points="213.13854,60.493032 213.13854,22.931971 196.39937,22.931971 200.07382,2.7224852 226.61153,2.7224852 250.0872,2.7224852 254.37406,22.931971 237.63489,22.931971 434.3037,60.493032 226.61153,60.493032 " />
          <g
             id="g1023-9"
             transform="translate(223.82013,2.771135)">
            <path
               d="m 91.397293,13.927491 c 1.55946,8.081625 -2.833721,16.133449 -10.155405,19.947295 L 96.847853,57.641549 H 71.235655 l -7.90464,-8.452534 V 22.763674 h 2.201003 c 1.055105,0 2.030073,-0.562891 2.557632,-1.476645 0.527546,-0.913755 0.527546,-2.039544 0,-2.953294 -0.527559,-0.913755 -1.502527,-1.476649 -2.557632,-1.476649 H 57.357801 V 57.641549 H 34.054366 V 0.00670608 h 26.903957 13.575184 c 8.230705,0 15.304326,5.83916032 16.863786,13.92078492 z"
               id="path944-0-2"
               inkscape:connector-curvature="0" />
            <path
               d="M 91.397293,13.927491 C 92.956749,22.009116 88.563576,30.06094 81.241888,33.874786 L 96.847849,57.641554 H 71.235651 l -7.90464,-8.452539 V 22.763674 h 2.201007 c 1.055109,0 2.030073,-0.562891 2.557628,-1.476645 0.527554,-0.913755 0.527554,-2.039544 0,-2.953294 -0.527555,-0.913755 -1.502519,-1.476649 -2.557628,-1.476649 H 57.357809 V 57.641554 H 34.054362 L 0.15278015,0.00670608 H 60.958323 74.533507 c 8.230709,0 15.30433,5.83916032 16.863786,13.92078492 z"
               id="path944-7-0"
               inkscape:connector-curvature="0" />
          </g>
          <polygon
             id="path872-4-3-7-9"
             points="326.70185,2.6625476 326.70185,31.607756 326.70185,60.552965 375.96284,60.552965 379.33318,44.89083 349.99146,44.89083 349.99146,38.546677 361.6885,38.546677 361.6885,31.607756 361.6885,24.668835 349.99146,24.668835 349.99146,18.324683 379.33318,18.324683 375.96284,2.6625476 " />
          <polygon
             id="path965-5-7"
             points="410.4303,2.6476513 419.05797,15.274915 324.98962,2.6476471 454.87827,2.6476471 436.86993,31.69533 454.87823,60.742999 212.91856,60.742999 419.05797,48.11574 410.43034,42.238273 383.23773,57.518694 195.4503,34.555184 172.06342,31.69533 370.94589,2.6476513 " />
        </g>
        <g
           id="g1040"
           transform="translate(1.052002,0.510824)"
           style="stroke:#ffffff">
          <polygon
             id="path855-6"
             points="37.975081,60.75122 0.012190429,2.9528865 26.278041,2.9528865 37.975081,18.324678 49.672125,2.9528865 75.937976,2.9528865 "
             style="fill:#0000aa;fill-rule:nonzero;stroke-width:4.04926968" />
          <polygon
             id="path872-4-6"
             points="80.704344,2.6625476 80.704344,31.607756 80.704344,60.552965 129.96533,60.552965 133.33567,44.89083 103.99395,44.89083 103.99395,38.546677 115.69098,38.546677 115.69098,31.607756 115.69098,24.668835 103.99395,24.668835 103.99395,18.324683 133.33567,18.324683 129.96533,2.6625476 "
             style="fill:#0000aa;fill-rule:nonzero;stroke-width:4.04926968" />
          <g
             id="g1027"
             transform="translate(137.52244)"
             style="stroke-width:4.04926968">
            <path
               d="M 54.48739,11.063637 C 46.085717,1.2484209 32.446891,-2.2722241 20.344203,2.2501137 8.2415145,6.7724516 0.25342135,18.374293 0.34694899,31.293961 0.44048083,44.213633 8.5956976,55.698612 20.762591,60.045254 32.929484,64.391899 46.515909,60.674166 54.774607,50.738349 L 40.796133,35.4302 c -3.327421,3.873951 -8.241221,6.481626 -12.707234,5.188474 -4.466013,-1.293156 -7.482295,-5.455495 -7.320626,-10.102148 0.161677,-4.646652 3.459943,-8.58929 8.005033,-9.568928 4.545089,-0.979638 8.053141,0.833701 11.93702,5.421754 z"
               id="path898-4"
               inkscape:connector-curvature="0"
               style="fill:#0000aa;fill-rule:nonzero" />
            <path
               d="M 54.487394,11.063637 C 46.085717,1.2484209 32.446895,-2.2722241 20.344207,2.2501137 8.2415187,6.7724516 0.25342554,18.374293 0.34695319,31.293961 0.44048502,44.213633 8.5957018,55.698612 20.762595,60.045258 32.929489,64.391903 46.515909,60.67417 54.774607,50.738349 L 40.796133,35.4302 c -3.327417,3.873951 -8.241216,6.481626 -12.70723,5.188474 -4.466013,-1.293156 -7.482295,-5.455495 -7.320626,-10.102148 0.161677,-4.646652 3.459943,-8.58929 8.005033,-9.568928 4.545089,-0.979638 8.053141,0.833701 11.937021,5.421754 z"
               id="path898-1"
               inkscape:connector-curvature="0" />
          </g>
          <polygon
             id="path904-8-6"
             points="212.18855,60.493032 212.18855,22.931971 195.79632,22.931971 199.12383,2.7224852 225.66153,2.7224852 249.1372,2.7224852 251.2036,22.931971 236.68489,22.931971 236.68489,60.493032 225.66153,60.493032 "
             style="fill:#0000aa;fill-rule:nonzero;stroke-width:4.04926968" />
          <g
             id="g1023"
             transform="translate(256.43921,2.771135)"
             style="stroke-width:4.04926968">
            <path
               d="m 57.828217,13.927491 c 1.55946,8.081625 -2.833721,16.133449 -10.155405,19.947295 L 63.278777,57.641549 H 37.666579 l -7.90464,-8.452534 V 22.763674 h 2.201003 c 1.055105,0 2.030073,-0.562891 2.557632,-1.476645 0.527546,-0.913755 0.527546,-2.039544 0,-2.953294 -0.527559,-0.913755 -1.502527,-1.476649 -2.557632,-1.476649 H 22.253661 V 57.641549 H 0.48529024 V 0.00670608 H 27.389247 40.964431 c 8.230705,0 15.304326,5.83916032 16.863786,13.92078492 z"
               id="path944-0"
               inkscape:connector-curvature="0"
               style="fill:#0000aa;fill-rule:nonzero" />
            <path
               d="M 57.828217,13.927491 C 59.387672,22.009116 54.9945,30.06094 47.672812,33.874786 L 63.278773,57.641554 H 37.666575 l -7.90464,-8.452539 V 22.763674 h 2.201007 c 1.055109,0 2.030073,-0.562891 2.557627,-1.476645 0.527555,-0.913755 0.527555,-2.039544 0,-2.953294 -0.527554,-0.913755 -1.502518,-1.476649 -2.557627,-1.476649 h -9.709281 l 9e-6,40.784468 H 0.48528604 V 0.00670608 H 27.389247 40.964431 c 8.230709,0 15.30433,5.83916032 16.863786,13.92078492 z"
               id="path944-7"
               inkscape:connector-curvature="0" />
          </g>
          <polygon
             id="path872-4-3-7"
             points="325.75185,2.6625476 325.75185,31.607756 325.75185,60.552965 375.01284,60.552965 378.38318,44.89083 349.04146,44.89083 349.04146,38.546677 360.7385,38.546677 360.7385,31.607756 360.7385,24.668835 349.04146,24.668835 349.04146,18.324683 378.38318,18.324683 375.01284,2.6625476 "
             style="fill:#0000aa;fill-rule:nonzero;stroke-width:4.04926968" />
          <polygon
             id="path965-5"
             points="418.10797,15.274915 426.73564,2.6476471 453.92827,2.6476471 435.91993,31.69533 453.92823,60.742999 426.7356,60.742999 418.10797,48.11574 409.48034,60.743004 382.28773,60.743004 400.29605,31.69533 382.28769,2.6476513 409.4803,2.6476513 "
             style="fill:#0000aa;fill-rule:nonzero;stroke-width:4.01947927" />
        </g>
      </g>
      <path
         d="M 473.03591,63.379174 V 57.95009 H 471 V 57 h 5.29336 v 0.95009 H 473.986 v 5.429084 z m 3.80036,0 V 57 h 1.62872 l 1.62873,5.15763 L 481.72244,57 h 1.493 v 6.379174 h -0.95009 V 57.95009 l -1.62873,5.429084 h -0.95009 l -1.76445,-5.429084 v 5.429084 z"
         id="Shape"
         inkscape:connector-curvature="0"
         style="fill:#ffffff;fill-rule:nonzero" />
    </g>
  </g>
</svg>
